icons/lines/group-three.svg

<svg xmlns="http://www.w3.org/2000/svg" width="24" height="24" viewBox="0 0 24 24" fill="none" stroke="currentColor" stroke-width="2" stroke-linecap="round" stroke-linejoin="round" >
  <path d="M6 2H18C19.1 2 20 2.9 20 4V8.32001H4V4C4 2.9 4.9 2 6 2Z"/>
  <path d="M4 8.32001V11.88C4 12.96 4.58003 13.96 5.53003 14.49L8.48999 16.16C9.11999 16.51 9.51001 17.18 9.51001 17.9V20C9.51001 21.1 10.41 22 11.51 22H12.51C13.61 22 14.51 21.1 14.51 20V17.9C14.51 17.18 14.9 16.51 15.53 16.16L18.49 14.49C19.43 13.96 20.02 12.96 20.02 11.88V8.32001H4Z"/>
  </svg>

<svg xmlns="http://www.w3.org/2000/svg" width="24" height="24" viewBox="0 0 24 24" fill="none" stroke="currentColor" stroke-width="2" stroke-linecap="round" stroke-linejoin="round">
  <path d="M20 8.32V4a2 2 0 0 0-2-2H6a2 2 0 0 0-2 2v7.88a3 3 0 0 0 1.53 2.61l2.96 1.67a2 2 0 0 1 1.02 1.74V20a2 2 0 0 0 2 2h1a2 2 0 0 0 2-2v-2.1a2 2 0 0 1 1.02-1.74l2.96-1.67a3 3 0 0 0 1.53-2.61V8.32H4" />
</svg>
